img/headlineSymbols.svg

<svg width="340" height="22" viewBox="0 0 340 22" fill="none" xmlns="http://www.w3.org/2000/svg">
<path d="M331.549 19.3687C335.369 15.836 337.292 13.6169 339.661 8.50341C339.966 6.44492 339.535 4.32092 336.502 3.32479C331.879 3.32477 331.549 6.92458 331.549 6.92458C331.549 6.92458 331.219 3.32472 326.596 3.32474C323.563 4.32087 323.131 6.44487 323.436 8.50335C325.805 13.6168 327.728 15.836 331.549 19.3687Z" fill="white"/>
<path d="M310.971 1.58112L303.121 11.528C303.123 14.4512 303.695 15.5634 305.95 16.4092C308.646 17.0925 310.971 14.2069 310.971 14.2069C310.971 14.2069 313.297 17.0926 315.993 16.4093C318.248 15.5634 318.82 14.4512 318.822 11.5281L310.971 1.58112Z" fill="#958E7C"/>
<path d="M313.735 21.1656C312.072 18.8062 311.515 17.2684 310.966 14.269C310.418 17.2684 309.86 18.8062 308.197 21.1656H313.735Z" fill="#958E7C"/>
<path d="M0 10.1363L9.07583 1.06046L18.1517 10.1363L9.07583 19.2121L0 10.1363Z" fill="white"/>
<path d="M36.5392 19.6109H27.0473C30.823 17.3194 31.492 15.4628 31.7933 11.7985L25.4654 14.9235C22.0043 12.5271 21.8227 11.161 25.4654 8.67358L31.7933 11.7985L28.6291 3.98634C30.6332 -0.070524 32.5838 0.0802654 34.957 3.98634L31.7933 11.7985L38.9122 8.67358C41.6872 11.1146 41.073 12.4826 38.9122 14.9235L31.7933 11.7985C32.3688 15.4634 33.1898 17.2777 36.5392 19.6109Z" fill="#958E7C"/>
<path d="M31.7933 11.7985C31.492 15.4628 30.823 17.3194 27.0473 19.6109H36.5392C33.1898 17.2777 32.3688 15.4634 31.7933 11.7985ZM31.7933 11.7985L25.4654 14.9235C22.0043 12.5271 21.8227 11.161 25.4654 8.67358L31.7933 11.7985ZM31.7933 11.7985L34.957 3.98634C32.5838 0.0802654 30.6332 -0.070524 28.6291 3.98634L31.7933 11.7985ZM31.7933 11.7985L38.9122 8.67358C41.6872 11.1146 41.073 12.4826 38.9122 14.9235L31.7933 11.7985Z" stroke="#958E7C" stroke-width="1.1646"/>
</svg>

<svg width="340" height="22" fill="none" xmlns="http://www.w3.org/2000/svg"><path d="M331.55 19.37c3.82-3.53 5.74-5.75 8.11-10.87.3-2.06-.13-4.18-3.16-5.18-4.62 0-4.95 3.6-4.95 3.6s-.33-3.6-4.95-3.6c-3.04 1-3.47 3.12-3.16 5.18 2.37 5.12 4.29 7.34 8.1 10.87Z" fill="#fff"/><path d="m310.97 1.58-7.85 9.95c0 2.92.57 4.03 2.83 4.88 2.7.68 5.02-2.2 5.02-2.2s2.33 2.88 5.02 2.2c2.26-.85 2.83-1.96 2.83-4.88l-7.85-9.95Z" fill="#958E7C"/><path d="M313.74 21.17c-1.67-2.36-2.23-3.9-2.77-6.9-.55 3-1.11 4.54-2.77 6.9h5.54Z" fill="#958E7C"/><path d="m0 10.14 9.08-9.08 9.07 9.08-9.07 9.07L0 10.14Z" fill="#fff"/><path d="M36.54 19.61h-9.5c3.78-2.3 4.45-4.15 4.75-7.81l-6.32 3.12c-3.47-2.4-3.65-3.76 0-6.25l6.32 3.13-3.16-7.81c2-4.06 3.95-3.91 6.33 0l-3.17 7.8 7.12-3.12c2.78 2.44 2.16 3.81 0 6.25L31.8 11.8c.58 3.66 1.4 5.48 4.75 7.81Z" fill="#958E7C"/><path d="M31.8 11.8c-.3 3.66-.98 5.52-4.75 7.81h9.49c-3.35-2.33-4.17-4.15-4.75-7.81Zm0 0-6.33 3.12c-3.47-2.4-3.65-3.76 0-6.25l6.32 3.13Zm0 0 3.16-7.81c-2.38-3.91-4.33-4.06-6.33 0l3.16 7.8Zm0 0 7.11-3.13c2.78 2.44 2.16 3.81 0 6.25L31.8 11.8Z" stroke="#958E7C" stroke-width="1.16"/></svg>
